neru-dark-classic/22x22/actions/account-types-savings.svg

<svg xmlns="http://www.w3.org/2000/svg" width="22" height="22" version="1.1">
 <defs>
  <style id="current-color-scheme" type="text/css">
   .ColorScheme-Text { color:#d3dae3; } .ColorScheme-Highlight { color:#3fb7ff; }
  </style>
 </defs>
 <path style="fill:currentColor;opacity:0.3" class="ColorScheme-Text" d="M 10,3 C 8.3431458,3 7,4.3431458 7,6 7.0001698,6.1834609 7.017168,6.3665195 7.0507812,6.546875 7.7047573,6.3304216 8.3939899,6.1730463 9.1074219,6.0859375 9.5020091,6.0377588 9.9050973,6.015109 10.3125,6.0214844 11.213217,6.0355795 12.116398,6.1789717 12.960938,6.4472656 12.985112,6.299362 12.998169,6.1498549 13,6 13,4.3431458 11.656854,3 10,3 Z"/>
 <path style="fill:currentColor" class="ColorScheme-Text" d="M 10.296875 7.0214844 C 9.9359994 7.0158371 9.5781707 7.0354325 9.2285156 7.078125 C 6.5634156 7.403529 4.3052512 8.7894462 3.3945312 10.662109 C 3.0988214 11.270145 2.9987 11.708728 3 12.376953 C 3.00181 13.414193 3.3607779 14.343468 4.0507812 15.203125 L 5 19 L 6.4375 19 L 6.7167969 17.597656 C 6.7330969 17.581366 7.0394275 17.640646 7.3984375 17.728516 C 9.1550575 18.158439 11.449544 18.177949 12.865234 17.783203 C 12.996573 17.746583 13.060918 17.745955 13.146484 17.734375 L 13.5625 19 L 15 19 L 15.449219 15.800781 L 15.671875 15.662109 C 17.661075 14.41751 18.398359 13.81754 18.662109 13.228516 C 18.927819 12.635122 19.062553 11.825233 18.970703 11.382812 C 18.895003 11.018315 18.794671 10.943359 18.369141 10.943359 C 17.956091 10.943359 17.347371 10.807403 17.238281 10.689453 C 17.191981 10.639383 17.075004 10.451643 16.976562 10.273438 C 16.868903 10.078556 16.628017 9.7842921 16.373047 9.5332031 L 15.949219 9.1152344 L 16.306641 8.3320312 C 16.703401 7.5732972 16.796718 7.2416113 16.642578 7.1289062 C 16.499928 7.0245932 16.167226 7.0461562 15.666016 7.1914062 C 15.020166 7.3785663 14.659128 7.5878426 14.173828 8.0566406 C 13.940448 8.2820806 13.736873 8.5777329 13.720703 8.5917969 C 13.704503 8.6058569 13.706942 8.4418606 13.726562 8.2285156 L 13.761719 7.8417969 L 13.410156 7.6835938 C 12.482256 7.268696 11.379502 7.0384262 10.296875 7.0214844 z M 15.427734 10.003906 C 15.571526 9.9857752 15.727493 10.031816 15.847656 10.146484 C 16.165851 10.450124 15.9539 11 15.519531 11 C 15.378482 11 15.300349 10.9643 15.169922 10.839844 C 14.98043 10.659017 14.9512 10.474701 15.076172 10.244141 C 15.151682 10.104802 15.283943 10.022037 15.427734 10.003906 z"/>
</svg>

<svg xmlns="http://www.w3.org/2000/svg" width="22" height="22"><defs><style id="current-color-scheme" type="text/css">.ColorScheme-Text{color:#d3dae3}</style></defs><path class="ColorScheme-Text" d="M10 3a3 3 0 0 0-2.95 3.547 10.661 10.661 0 0 1 2.057-.461 8.81 8.81 0 0 1 1.206-.065c.9.015 1.803.158 2.648.426A3 3 0 0 0 13 6a3 3 0 0 0-3-3z" fill="currentColor" opacity=".3"/><path class="ColorScheme-Text" d="M10.297 7.021a7.817 7.817 0 0 0-1.068.057c-2.666.326-4.924 1.711-5.834 3.584-.296.608-.396 1.047-.395 1.715.002 1.037.36 1.966 1.05 2.826L5 19h1.438l.279-1.402c.016-.017.322.043.681.13 1.757.43 4.052.45 5.467.055.132-.036.196-.037.281-.049L13.562 19H15l.45-3.2.222-.138c1.99-1.244 2.726-1.844 2.99-2.433.266-.594.4-1.404.309-1.846-.076-.365-.176-.44-.602-.44-.413 0-1.022-.136-1.13-.254a3.202 3.202 0 0 1-.262-.416c-.108-.194-.349-.489-.604-.74l-.424-.418.358-.783c.396-.759.49-1.09.336-1.203-.143-.104-.476-.083-.977.062-.646.188-1.007.397-1.492.866-.234.225-.437.52-.453.535-.016.014-.014-.15.006-.363l.035-.387-.352-.158c-.928-.415-2.03-.646-3.113-.663zm5.13 2.983c.145-.018.3.028.42.142.319.304.107.854-.327.854-.142 0-.22-.036-.35-.16-.19-.181-.219-.365-.094-.596a.462.462 0 0 1 .352-.24z" fill="currentColor"/></svg>
